P2
# 仓库初始占据栅格（示意地图；可通过 SLAM 重新生成高精度地图）
20 25
255
0 0 0 0 0 0 0 0 0 0 0 0 0 0 0 0 0 0 0 0
0 254 254 254 0 254 254 0 254 254 0 254 254 0 254 254 254 254 254 0
0 254 254 254 0 254 254 0 254 254 0 254 254 0 254 254 254 254 254 0
0 254 254 254 0 254 254 0 254 254 0 254 254 0 254 254 254 254 254 0
0 254 254 254 0 254 254 0 254 254 0 254 254 0 254 254 254 254 254 0
0 254 254 254 0 254 254 0 254 254 0 254 254 0 254 254 254 254 254 0
0 254 254 254 0 254 254 0 254 254 0 254 254 0 254 254 254 254 254 0
0 254 254 254 0 254 254 0 254 254 0 254 254 0 254 254 254 254 254 0
0 254 254 254 0 254 254 0 254 254 0 254 254 0 254 254 254 254 254 0
0 254 254 254 0 254 254 0 254 254 0 254 254 0 254 254 254 254 254 0
0 254 254 254 0 254 254 0 254 254 0 254 254 0 254 254 254 254 254 0
0 254 254 254 0 254 254 0 254 254 0 254 254 0 254 254 254 254 254 0
0 254 254 254 0 254 254 0 254 254 0 254 254 0 254 254 254 254 254 0
0 254 254 254 0 254 254 0 254 254 0 254 254 0 254 254 254 254 254 0
0 254 254 254 0 254 254 0 254 254 0 254 254 0 254 254 254 254 254 0
0 254 254 254 0 254 254 0 254 254 0 254 254 0 254 254 254 254 254 0
0 254 254 254 0 254 254 0 254 254 0 254 254 0 254 254 254 254 254 0
0 254 254 254 0 254 254 0 254 254 0 254 254 0 254 254 254 254 254 0
0 254 254 254 0 254 254 0 254 254 0 254 254 0 254 254 254 254 254 0
0 254 254 254 0 254 254 0 254 254 0 254 254 0 254 254 254 254 254 0
0 254 254 254 254 254 254 254 254 254 254 254 254 254 254 254 254 254 254 0
0 254 254 254 254 254 254 254 254 254 254 254 254 254 254 254 254 254 254 0
0 254 254 254 254 254 254 254 254 254 254 254 254 254 254 254 254 254 254 0
0 254 254 254 254 254 254 254 254 254 254 254 254 254 254 254 254 254 254 0
0 0 0 0 0 0 0 0 0 0 0 0 0 0 0 0 0 0 0 0
